X:1
T:Livin' La VIda Loca
C:Ricky Martin
Z:All Rights Reserved
L:1/8
M:4/4
K:E
V:1 treble nm="[Alto Saxophone]"
%%MIDI program 65
V:1
"C#m" C2 G2 G2>E2 | F A2A- A G3 | C2 G2 G2zD | D F2F- F E3 | C2 G2 G2zE | F A2A- A G3 | %6
w: ||||||
w: ||||||
w: ||||||
 C2 G2 G2zD | D F2F- F E3 | z2 G2 G2>E2 | F A2A- A G3 | z2 G2 G2 D2 | D F2E- ED z2 | z2 G2 G2>E2 | %13
w: ||She's in to|su- per- sti- * tions|black cats and|voo- doo dolls. _ _|I feel a|
w: |||||||
w: |||||||
 F A2A- A G3 | z2 G2 G2 CC | D F2E- ED z2 | C2 C2 E F2G- | G2 FG- GFGF | C2 C2 E C2G- | G8 |: %20
w: prem- on- i- * tion|that girl's gon- na|make me fall. _ _|_ _ _ _ _||||
w: |||||||
w: |||||||
 z2 G2 G2>E2 | F A2A- A G3 | z2 G2 G2 CC | D F2E- ED z2 | z2 G2 G2zE | F A2A- A G3 | z2 G2 G2 C2 | %27
w: She's in- to|new sen- sa- _ tions|new kicks in the|can- dle light. _ _|She's got a|new ad- dict- _ ion|for every *|
w: Woke up in|New York C- _ ity|in a fun- ky|cheap ho- tel _ _|She took heart|and she took my ey|she must- 've|
w: |||||* * * * mon-||
 D F2E- EDzF |S"F#m" c2 cc- c c2c- | c c2d- d e2e- |"G#m" e2 dd- dc d2- | d4 z2 Ac- | %32
w: day and * night. * She'll|make you take _ your clothes|_ off and _ go dan-|_ cing in _ the rain.|_ She'll make|
w: slipped me sleep ing pill She|ne- ver drinks _ the wa-|_ ter and _ makes you|_ or- der _ _ Cham-|pagne Once you've|
w: * * a * * *|||||
"A" c c2c- c c2c- | c c2c- cdeg- |"B" g2 ff- f e2f- | f4zd eg- |"^G#sus7" g f2f- f e2g | %37
w: _ you live _ her cra-|_ zy life _ but she'll take|_ a- way _ your pain|_ like a bul-|_ let to _ your brain.|
w: * had a _ taste of|_ her you'll _ ne- ver be|_ the same _ _ _|Yeah, she'll _ make|you go _ _ in- sane.|
w: |||||
"_Come on!" f6 z2 |"C#m" e2>e2- e2 e2- | e e3 e2zF |"B" dddd- d f2f- |"C#m" f e3 z2 c2 | %42
w: _|Up- side, _ in-|_ side out she's|liv- in' la vi- _ da lo-|_ ca She'll|
w: |||||
w: |||||
 e2>e2- e2 e2- | e e3 e4 |"B" dddd- d f2f- |"C#m" f e3 z2 c2 | e2>e2- e2 e2- | e e2e- e2 ee | %48
w: push and _ pull|_ you down,|liv- in' la vi- _ da lo-|_ ca Her|lips are _ de-|* vil red * and her|
w: ||||||
w: ||||||
"B" d2 dd- deff- |"C#m" f e3 z4 | e2>e2- e2 e2- | e e3 e4 |"B" dddd- d e2d- | %53
w: skin's the co- _ lor mo- _|cha *|She will _ wear|_ you out|liv- in' la vi- _ da lo-|
w: |||||
w: |||||
"C#m" d c3"_Come on!" z4 |"B" dddd- d f2f- |"C#m" f"_Come on!" e3z2>F2 | %56
w: _ ca|liv- in' la vi- _ da lo-|_ ca Shes|
w: |||
w: |||
 ddd"^2nd"d- d"^time" f2"^to"f-O | f e3 z4 | C2 G2 G2zE | F A2A- A G3 | C2 G2 G2zD | D F2F- F E3 | %62
w: liv- in' la vi- _ da lo-|_ ca|||||
w: ||||||
w: ||||||
 C2 G2 G2zE | F A2A- A G3 |1 C2 G2 G2zD | D F2F- F E3 :|2 D F2F- F E2SF ||O"^coda" f e3 z4 |: %68
w: ||||* * * GO to She'll|* ca|
w: ||||||
w: ||||||
"C#m" e2>e2- e2 e2- | e e3 e2zF |"B" dddd- d f2f- |"C#m" f e3 z2 c2 | e2>e2- e2 e2- | e e3 e4 | %74
w: Up- side, _ in-|_ side out she's|liv- in' la vi- _ da lo-|_ ca She'll|push and _ pull|_ you down,|
w: ||||||
w: ||||||
"B" dddd- d f2f- |"C#m" f e3 z2 c2 | e2>e2- e2 e2- | e e2e- e2 ee |"B" d2 dd- deff- | %79
w: liv- in' la vi- _ da lo-|_ ca Her|lips are _ de-|* vil red * and her|skin's the co- _ lor mo- _|
w: |||||
w: |||||
"C#m" f e3 z4 | e2>e2- e2 e2- | e e3 e4 |"B" dddd- d e2d- |"C#m" d c3"_Come on!" z4 | %84
w: cha *|She will _ wear|_ you out|liv- in' la vi- _ da lo-|_ ca|
w: |||||
w: |||||
"B" dddd- d f2f- |"C#m" f"_Come on!" e3z2>F2 |1"B" dddd- d f2f- |2"C#m" f e3 z4 :|"B" z8 | %89
w: liv- in' la vi- _ da lo-|_ ca Shes|liv- in' la vi- _ da lo-|_ ca||
w: |||||
w: |||||
"C#m" z8 |] %90
w: |
w: |
w: |

